resources/haticons/SVG/vignette.svg

<!-- Generated by IcoMoon.io -->
<svg version="1.1" xmlns="http://www.w3.org/2000/svg" width="24" height="24" viewBox="0 0 24 24">
<title>vignette</title>
<path d="M12 18q3.328 0 5.672-1.758t2.344-4.242-2.344-4.242-5.672-1.758-5.672 1.758-2.344 4.242 2.344 4.242 5.672 1.758zM21 3q0.797 0 1.406 0.609t0.609 1.406v13.969q0 0.797-0.609 1.406t-1.406 0.609h-18q-0.797 0-1.406-0.609t-0.609-1.406v-13.969q0-0.797 0.609-1.406t1.406-0.609h18z"></path>
</svg>

<svg xmlns="http://www.w3.org/2000/svg" width="24" height="24"><path d="M12 18q3.328 0 5.672-1.758T20.016 12t-2.344-4.242T12 6 6.328 7.758 3.984 12t2.344 4.242T12 18zm9-15q.797 0 1.406.609t.609 1.406v13.969q0 .797-.609 1.406T21 20.999H3q-.797 0-1.406-.609t-.609-1.406V5.015q0-.797.609-1.406T3 3h18z"/></svg>
